packages/dnb-ui-lib/assets/icons/file_medium.svg

<svg width="24" height="24" viewBox="0 0 24 24" fill="none" xmlns="http://www.w3.org/2000/svg">
<path fill-rule="evenodd" clip-rule="evenodd" d="M18.0454 1.5C18.2411 1.49989 18.4292 1.57629 18.5693 1.7129L18.5694 1.713L21.5232 4.59574L21.5235 4.59607C21.6683 4.7372 21.75 4.93081 21.75 5.133V5.13307V21.75C21.75 22.1642 21.4142 22.5 21 22.5H3C2.58579 22.5 2.25 22.1642 2.25 21.75V2.25C2.25 1.83579 2.58579 1.5 3 1.5H18.045L18.0454 1.5ZM19.6166 0.639001C19.1962 0.229094 18.6322 -0.000221033 18.045 1.5987e-07H18.0448H3C1.75736 1.5987e-07 0.75 1.00736 0.75 2.25V21.75C0.75 22.9926 1.75736 24 3 24H21C22.2426 24 23.25 22.9926 23.25 21.75V5.133V5.13293C23.2499 4.52628 23.0049 3.94537 22.5705 3.52193L19.6168 0.639259L19.6166 0.639001ZM6.04492 7.5C5.63071 7.5 5.29492 7.83579 5.29492 8.25C5.29492 8.66421 5.63071 9 6.04492 9H18.0449C18.4591 9 18.7949 8.66421 18.7949 8.25C18.7949 7.83579 18.4591 7.5 18.0449 7.5H6.04492ZM5.29492 12.75C5.29492 12.3358 5.63071 12 6.04492 12H18.0449C18.4591 12 18.7949 12.3358 18.7949 12.75C18.7949 13.1642 18.4591 13.5 18.0449 13.5H6.04492C5.63071 13.5 5.29492 13.1642 5.29492 12.75ZM6.04492 16.5C5.63071 16.5 5.29492 16.8358 5.29492 17.25C5.29492 17.6642 5.63071 18 6.04492 18H12.0449C12.4591 18 12.7949 17.6642 12.7949 17.25C12.7949 16.8358 12.4591 16.5 12.0449 16.5H6.04492Z" fill="black"/>
</svg>

<svg width="24" height="24" viewBox="0 0 24 24" fill="none" xmlns="http://www.w3.org/2000/svg"><path fill-rule="evenodd" clip-rule="evenodd" d="M18.045 1.5a.75.75 0 01.524.213l2.954 2.883a.75.75 0 01.227.537V21.75a.75.75 0 01-.75.75H3a.75.75 0 01-.75-.75V2.25A.75.75 0 013 1.5h15.045zm1.572-.861A2.25 2.25 0 0018.045 0H3A2.25 2.25 0 00.75 2.25v19.5A2.25 2.25 0 003 24h18a2.25 2.25 0 002.25-2.25V5.133a2.25 2.25 0 00-.68-1.611L19.617.639zM6.045 7.5a.75.75 0 000 1.5h12a.75.75 0 000-1.5h-12zm-.75 5.25a.75.75 0 01.75-.75h12a.75.75 0 010 1.5h-12a.75.75 0 01-.75-.75zm.75 3.75a.75.75 0 000 1.5h6a.75.75 0 000-1.5h-6z" fill="#000"/></svg>
